src/img/stars.svg

<svg width="105" height="18" viewBox="0 0 105 18" fill="none" xmlns="http://www.w3.org/2000/svg">
<path d="M8.52447 1.46353C8.67415 1.00287 9.32585 1.00287 9.47553 1.46353L10.9084 5.87336C10.9753 6.07937 11.1673 6.21885 11.3839 6.21885H16.0207C16.505 6.21885 16.7064 6.83865 16.3146 7.12336L12.5633 9.84878C12.3881 9.9761 12.3148 10.2018 12.3817 10.4078L13.8145 14.8176C13.9642 15.2783 13.437 15.6613 13.0451 15.3766L9.29389 12.6512C9.11865 12.5239 8.88135 12.5239 8.70611 12.6512L4.95488 15.3766C4.56303 15.6613 4.03578 15.2783 4.18546 14.8176L5.6183 10.4078C5.68524 10.2018 5.61191 9.9761 5.43667 9.84878L1.68544 7.12336C1.29358 6.83866 1.49497 6.21885 1.97933 6.21885H6.6161C6.83272 6.21885 7.02469 6.07937 7.09163 5.87336L8.52447 1.46353Z" fill="#F3BE00"/>
<path d="M30.5245 1.46353C30.6741 1.00287 31.3259 1.00287 31.4755 1.46353L32.9084 5.87336C32.9753 6.07937 33.1673 6.21885 33.3839 6.21885H38.0207C38.505 6.21885 38.7064 6.83865 38.3146 7.12336L34.5633 9.84878C34.3881 9.9761 34.3148 10.2018 34.3817 10.4078L35.8145 14.8176C35.9642 15.2783 35.437 15.6613 35.0451 15.3766L31.2939 12.6512C31.1186 12.5239 30.8814 12.5239 30.7061 12.6512L26.9549 15.3766C26.563 15.6613 26.0358 15.2783 26.1855 14.8176L27.6183 10.4078C27.6852 10.2018 27.6119 9.9761 27.4367 9.84878L23.6854 7.12336C23.2936 6.83866 23.495 6.21885 23.9793 6.21885H28.6161C28.8327 6.21885 29.0247 6.07937 29.0916 5.87336L30.5245 1.46353Z" fill="#F3BE00"/>
<path d="M52.022 1.55767C52.1666 1.08658 52.8334 1.08658 52.978 1.55767L54.2999 5.86553C54.3644 6.07551 54.5583 6.21885 54.7779 6.21885H59.114C59.5914 6.21885 59.7973 6.82405 59.4189 7.11515L55.8627 9.85085C55.6974 9.97802 55.6284 10.1944 55.6895 10.3938L57.0361 14.782C57.1791 15.2478 56.6394 15.6221 56.2533 15.325L52.8049 12.6722C52.6251 12.534 52.3749 12.534 52.1951 12.6722L48.7467 15.325C48.3606 15.6221 47.8209 15.2478 47.9639 14.782L49.3105 10.3938C49.3716 10.1944 49.3026 9.97802 49.1373 9.85085L45.5811 7.11515C45.2027 6.82405 45.4086 6.21885 45.886 6.21885H50.2221C50.4417 6.21885 50.6356 6.07551 50.7001 5.86553L52.022 1.55767Z" fill="#F3BE00"/>
<path d="M73.5245 1.46353C73.6741 1.00287 74.3259 1.00287 74.4755 1.46353L75.9084 5.87336C75.9753 6.07937 76.1673 6.21885 76.3839 6.21885H81.0207C81.505 6.21885 81.7064 6.83865 81.3146 7.12336L77.5633 9.84878C77.3881 9.9761 77.3148 10.2018 77.3817 10.4078L78.8145 14.8176C78.9642 15.2783 78.437 15.6613 78.0451 15.3766L74.2939 12.6512C74.1186 12.5239 73.8814 12.5239 73.7061 12.6512L69.9549 15.3766C69.563 15.6613 69.0358 15.2783 69.1855 14.8176L70.6183 10.4078C70.6852 10.2018 70.6119 9.9761 70.4367 9.84878L66.6854 7.12336C66.2936 6.83866 66.495 6.21885 66.9793 6.21885H71.6161C71.8327 6.21885 72.0247 6.07937 72.0916 5.87336L73.5245 1.46353Z" fill="#F3BE00"/>
<path d="M95.5245 1.46353C95.6741 1.00287 96.3259 1.00287 96.4755 1.46353L97.9084 5.87336C97.9753 6.07937 98.1673 6.21885 98.3839 6.21885H103.021C103.505 6.21885 103.706 6.83865 103.315 7.12336L99.5633 9.84878C99.3881 9.9761 99.3148 10.2018 99.3817 10.4078L100.815 14.8176C100.964 15.2783 100.437 15.6613 100.045 15.3766L96.2939 12.6512C96.1186 12.5239 95.8814 12.5239 95.7061 12.6512L91.9549 15.3766C91.563 15.6613 91.0358 15.2783 91.1855 14.8176L92.6183 10.4078C92.6852 10.2018 92.6119 9.9761 92.4367 9.84878L88.6854 7.12336C88.2936 6.83866 88.495 6.21885 88.9793 6.21885H93.6161C93.8327 6.21885 94.0247 6.07937 94.0916 5.87336L95.5245 1.46353Z" fill="#F3BE00"/>
</svg>

<svg width="105" height="18" fill="none" xmlns="http://www.w3.org/2000/svg"><path d="M8.524 1.464a.5.5 0 01.952 0l1.432 4.41a.5.5 0 00.476.345h4.637a.5.5 0 01.294.904L12.563 9.85a.5.5 0 00-.181.559l1.433 4.41a.5.5 0 01-.77.559L9.294 12.65a.5.5 0 00-.588 0l-3.751 2.726a.5.5 0 01-.77-.56l1.433-4.41a.5.5 0 00-.181-.558L1.685 7.123a.5.5 0 01.294-.904h4.637a.5.5 0 00.476-.346l1.432-4.41zM30.524 1.464a.5.5 0 01.951 0l1.433 4.41a.5.5 0 00.476.345h4.637a.5.5 0 01.294.904L34.563 9.85a.5.5 0 00-.181.559l1.433 4.41a.5.5 0 01-.77.559l-3.751-2.726a.5.5 0 00-.588 0l-3.751 2.726a.5.5 0 01-.77-.56l1.433-4.41a.5.5 0 00-.181-.558l-3.752-2.726a.5.5 0 01.294-.904h4.637a.5.5 0 00.476-.346l1.433-4.41zM52.022 1.558a.5.5 0 01.956 0L54.3 5.866a.5.5 0 00.478.353h4.336a.5.5 0 01.305.896l-3.556 2.736a.5.5 0 00-.173.543l1.346 4.388a.5.5 0 01-.783.543l-3.448-2.653a.5.5 0 00-.61 0l-3.448 2.653a.5.5 0 01-.783-.543l1.346-4.388a.5.5 0 00-.173-.543l-3.556-2.736a.5.5 0 01.305-.896h4.336a.5.5 0 00.478-.353l1.322-4.308zM73.525 1.464a.5.5 0 01.95 0l1.433 4.41a.5.5 0 00.476.345h4.637a.5.5 0 01.294.904L77.563 9.85a.5.5 0 00-.181.559l1.432 4.41a.5.5 0 01-.769.559l-3.751-2.726a.5.5 0 00-.588 0l-3.751 2.726a.5.5 0 01-.77-.56l1.433-4.41a.5.5 0 00-.181-.558l-3.752-2.726a.5.5 0 01.294-.904h4.637a.5.5 0 00.476-.346l1.433-4.41zM95.525 1.464a.5.5 0 01.95 0l1.433 4.41a.5.5 0 00.476.345h4.637a.5.5 0 01.294.904L99.563 9.85a.5.5 0 00-.181.559l1.433 4.41a.5.5 0 01-.77.559l-3.751-2.726a.5.5 0 00-.588 0l-3.751 2.726a.5.5 0 01-.77-.56l1.433-4.41a.5.5 0 00-.181-.558l-3.752-2.726a.5.5 0 01.294-.904h4.637a.5.5 0 00.476-.346l1.433-4.41z" fill="#F3BE00"/></svg>
